X:1
T:Byrne’s Hornpipe [3]
M:C
L:1/8
R:Hornpipe
S:Rev. Luke Donnellan – “Oriel Songs and Dances",
S:Journal of the County Louth Archaeological Society (vol. II, No. 2, 1909; No. 46)
Z:AK/Fiddler’s Companion
K:D
ABc|dAFA BGEG|FAde d2 dc|Bdef gfed|c2 A2A2 AG|
FABc dAGF|Edcd ecAg|fgaf bgec|d2 dd d2 df||
bagf edce|agfe dcBA|Bdef gfed|c2A2 A2 AG|
FABc dAGF|Edcd ecAg|fgaf bgec|d2 dd d2||

